!!!OTL: 352b. Marschlied der freiwilligen Jaeger (1815).
!!!ARE: Europa, Mitteleuropa, Deutschland
!!!SCT: E0352A
!!!TXL: @@DE
!!!YEM: Copyright 1995, estate of Helmut Schaffrath.
**kern	**text
*ICvox	*
*M4/4	*
*met(c)	*
*k[b-e-]	*
*B-:	*
!LO:TX:a:t=Kräftig.	!
!LO:TX:a:t=Mel. von 1813: "Wir Preußen ʒiehen in das Feld".	!
{4b-/	Mit
=1	=1
4f	fro-
4f	-hem
4f	Muth
4b-/	und
=2	=2
4g	hei-
4g	-term
4g}	Sinn,
{4cc	hur-
=3	=3
4a	-rah,
4f	hur-
4g	-rah,
4a	hur-
=4	=4
2b-	-rah!
4r}	.
{4b-/	ʒiehn
=5	=5
4f	Jä-
4f	-ger
4f	wir
4b-/	nach
=6	=6
4g	Frank-
4g	-reich
4g}	hin;
{4cc	hur-
=7	=7
4a	-rah,
4f	hur-
4g	-rah,
4a	hur-
=8	=8
2b-	-rah!
4r}	.
{4b-	er-
=9	=9
4cc	-wer-
4cc	-ben
4cc	uns
4a	dort
=10	=10
4b-	Ruhm
4dd	und
4dd}	Glück,
{4b-	das
=11	=11
4cc	Lieb-
4cc	-chen
4cc	laſ-
4a	-ſen
=12	=12
4b-	wir
4dd	ʒu-
4dd}	-rück,
{4f	und
=13	=13
2b-	ſchei-
(8ddL	-den,
8ccJ)	.
8b-L	und
8aJ	.
=14	=14
2g	ſchei-
4ee-}	-den,
{4ee-	und
=15	=15
4ff	ſchei-
4ff	-den
4ff	mit
4ff	Hur-
=16	=16
2b-	-rah!
4r}	.
{4ff	Hur-
=17	=17
4dd	-rah,
4ff	hur-
4dd	-rah,
4ff	hur-
=18	=18
8ggL	-rah,
8ffJ	.
8ee-L	hur-
8ddJ	.
4ee-}	-rah!
{4ee-	hur-
=19	=19
4cc	-rah!
4ee-	hur-
4cc	-rah,
4ee-	hur-
=20	=20
8ffL	-rah,
8ee-J	.
8ddL	hur-
8ccJ	.
4dd}	-rah,
{4f	und
=21	=21
2b-	ſchei-
8ddL	-den,
8ccJ	.
8b-L	und
8aJ	.
=22	=22
2g	ſchei-
4ee-}	-den,
{4ee-	und
=23	=23
4ff	ſchei-
4ff	-den
4ff	mit
4ff	Hur-
=24	=24
2b-	-rah!
4r}	.
==	==
!!!AGN: historisches Lied, Krieg (1815)
!!!ONB: ESAC (Essen Associative Code) Database: ERK1
!!!AMT: simple quadruple
!!!AIN: vox
!!!EED: Helmut Schaffrath
!!!EEV: 1.0
!!!GTL: Historische Lieder
!!!URL-scan: https://rosdok.uni-rostock.de/mcrviewer/recordIdentifier/rosdok_ppn745177662/iview2/phys_0167.iview2?x=-511.385789653207&y=2146.8601751369424&scale=0.48104763951911705&rotation=0&layout=singlePageLayout
!!!ENC: Anna Maria Matuszewska
!!!EEV: 2024/09/12
*-	*-
